X:1
T:Cluny Gardens
T:Cluny Gardens
T:Anselm Lingnau
C:Anselm Lingnau
%%score ( 1 2 )
L:1/8
M:4/4
K:C
V:1 treble 
V:2 treble 
V:1
S ee Tad Babaa!p! Gbbve Edbug.TuE gee x17 |"G" A<G G2 G<D G>^F |"C" ^F<E E>D"G" D2 (3DEF | %3
 G2 G>A B<G"Am" c>B |"D" A>G A<B A2 B>A |"G" A<G G2 G<D G>^F |"C" ^F<E E>D"Bm" G>B d<e | %7
"Em" d/B/A/G/ A>G"C" E3 D | E G3"G" G2 || b>a |"G" a<g g>d"C" e>d"G" B<G | %11
"Am" A>B A<G"C" E2"D" (3DE^F |"G" G2 g>G"C" g<e"Bm" d>B |"Am" A>G A<B"D" A2 b>a | %14
"G" a<g g>d"C" e>d"G" e<g |"Am" e<d"G" d>B"D" A2 d>e |"G" d/B/A/G/ A>G"C" E3 D | E G3"G" G2 |] %18
V:2
 TBaba a Gbbfafef aeaveuef Aa !fermata!de a!p!e.eage!p!agebaee!p!B>A | x8 | x8 | x8 | x8 | x8 | %6
 x8 | x8 | x6 || x2 | x8 | x8 | x8 | x8 | x8 | x8 | x8 | x6 |] %18

